X:1
T:Chi vuol udire
T:Chi vuol udire
T:Girolamo Scotto
T:Source : Madrigali a tre voci---Venetia---G.Scotto---1541. Editor : André Vierendeels (11/06/16).
T:Notes : Original clefs : C1, C4, F4 Editorial accidentals above tha staff Original note values have been halved Text by Jacopo Sannazzaro (Arcadia) "Terzii toni"
T:©
T:©
T:©
T:©
T:©
C:Girolamo Scotto
Z:©
%%score [ 1 2 3 ]
L:1/8
Q:1/4=96
M:2/2
K:C
V:1 treble nm="Soprano" snm="S"
V:2 treble-8 nm="Tenor" snm="T"
V:3 bass nm="Bass" snm="B"
V:1
 A4 A2 A2 | E2 E2 A3 G | F2 E2 D2 G2 | A3 B c2 G2 | A3 G F2 E2 | G2 D2 D2 D2 | A3 B c4 | G2 c4 c2 | %8
w: Chi vuol u-|di- re'i miei _|_ _ _ so-|spi- * * r'in|ri- * * *|me, don- ne mie|ca- * *|r'e l'an- go-|
 B2 G2 AGFE | FD G4 E2- | E2 A4 G2 | A4 E2 B2 | c2 A2 G2 c2- | c2 B3 A A2- | A2 G2 A3 G | %15
w: scio- so pian- * * *|* * * to,|_ pian- *|* to, e|l'an- go- scio- so|_ pian- * *||
 F2 E3 D D2- | D2 C2 D2 B2- | B2 c4 A2 | A2 A2 G2 F2 | E2 G3 F F2- | FE E2 G3 A | B2 c3 B A2- | %22
w: |* * to, et|_ quan- ti|pas- si tra la|not- t'e'l _ gior-|||
 AG G4 F2 | G4 z2 G2 | G2 G2 A3 B | c2 F2 ^G2 A2- | A2 GF E2 F2- | FE E4 D2 | E2 c4 A2- | %29
w: |no, spar-|gen- do'in- dar- *|* no vo per|_ _ _ _ tan-|* ti cam- *|pi, leg- ga|
 A2 G2 A2 B2 | c3 B A2 G2 | F2 E4 D2 | E4 z2 E2 | E2 E2 G2 G2 | C2 C2 G2 E2 | A6 G2 | F2 E4 D2 | %37
w: _ per que- ste|quer- * ci'e per|li sas- *|si, che|n'e gia pie- na'ho-|mai cias- cu- na|val- *||
 E2 C2 C2 C2 | G3 A B2 c2- | c2 A4 B2 | c2 G2 c2 B2- | BA A4 G2 |"^-natural" A3 G F2 E2 | F4 E4- | %44
w: le, che n'e gia|pie- na'ho- mai cias-|* cu- na|val- * * *|||* le.|
 E8 |] %45
w: _|
V:2
 z8 | z4 A4 | A2 c2 B2 B2 | c3 B A2 c2- | c2 A3 B c2- | c2 B2 A2 B2 | c2 A2 A2 A2 | e2 e2 f2 e2- | %8
w: |Chi|vuol u- di- re'i|miei _ _ so-|* spi- r'in ri-||me, don- ne mie|ca- r'e l'an- go-|
 edcB A3 G | F2 c2 B2 c2- | c2 BA B4 | A2 c4 B2 | ABcd e4- | e2 e2 c2 A2 | B4 A2 c2 | c2 c2 B2 A2 | %16
w: * * * * scio- *|* so pian- *||* to, e|l'an- * * * *|* go- scio- so|pian- to, et|quan- ti pas- si|
 B2 e2 f2 d2- | d2 e2 A2 c2 | d2 e4 A2 | c3 B A4 | G3 F E2 e2 | d2 e2 A2 A2 | B2 c2 A2 A2 | %23
w: tra la not- t'e'l|_ gior- no, la|not- t'e'l gior-||* * no, spar-|gen- do'in- dar- no|vo per tan- ti|
 GABc d2 e2 | B2 c4 A2- | A2 d2 B2 c2 | A3 B c2 A2 | A2 G2 F4 | E4 F2 c2 | B2 B2 A2 G2 | %30
w: cam- * * * * *|pi, spar- gen-|* do'in- dar- no|vo _ _ per|tan- ti cam-|pi, leg- ga|per que- ste quer-|
 F2 E2 F2 c2 | A2 c4 BA | B2 c4 BA | G2 E2 E2 E2 | A4 B2 c2- | c2 c2 d2 B2 | A3 G F4 | %37
w: ci'e per li sas-|||si, che n'e gia|pie- na'ho- mai|_ cias- cu- na|val- * *|
 E2 G2 A2 A2 | B3 c d2 e2- | e2 f2 d4 | A2 e4 e2 | c2 A2 B4 | A8 | A4 A4- | A8 |] %45
w: le, che n'e gia|pie- na'ho- mai cias-|* cu- na|val- le, cias-|cu- * *|na|val- le.|_|
V:3
 z4 A,4 | A,2 A,2 F,2 F,2 | D,2 C,2 G,2 G,2 | F,4 F,2 E,2 | F,3 E, D,2 C,D, | E,F, G,2 D,2 G,2 | %6
w: Chi|vuol u- di- re'i|miei so- spi- r'in|ri- me, i|miei _ _ so- *|* * spi- r'in ri-|
"^#" F,8 | E,2 A,,2 A,,2 A,,2 | E,2 E,2 F,2 D,2- | D,2 E,3 D,C,B,, | A,,2 A,,2 E,4 | A,,2 A,4 G,2 | %12
w: |me, don- ne mie|ca- r'e l'an- go-|* scio- * * *|* so pian-|to, e l'an-|
 F,4 E,2 A,,B,, | C,D, E,2 F,4 | E,4 A,,2 A,2 | A,2 A,2 G,2 F,2 | E,4 D,2 G,2- | G,2 C,2 F,3 E, | %18
w: go- scio- * *|* * * so|pian- to, et|quan- ti pas- si|tra la not-|* t'e'l gior- *|
 D,2 A,,2 C,2 D,2 | A,,2 C,2 D,4 | E,2 C,2 C,2 C,2 | G,2 C,2 F,2 F,2 | E,2 C,2 D,4 | G,6 C,2 | %24
w: no, la not- t'e'l|gior- * *|no, spar- gen- do'in-|dar- no vo per|tan- ti cam-|* pi,|
 G,2 E,2 F,4- | F,2 D,2 E,2 A,,2 | D,4 C,2 D,2 | A,,2 C,2 z2 D,2 | A,,4 A,4 | E,2 E,2 F,2 E,2 | %30
w: spar- gen- do'in-|* dar- no vo|per tan- ti|cam- pi, leg-|ga leg-|ga per que- ste|
 A,,2 A,,2 D,2 E,2 | F,2 C,2 F,4 | E,2 A,,2 A,,2 A,,2 | E,2 C,2 C,2 C,2 | F,4 E,2 A,2- | %35
w: quer- ci'e per li|sas- * *|si, che n'e gia|pie- na'ho- mai cias-|cu- na val-|
 A,G,F,E, D,2 E,2 | A,,4 D,4 |"^#" A,,2 E,2 F,2 F,2 | E,2 E,2 D,2 C,2 | A,,2 D,4 G,2 | %40
w: ||le, che n'e gia|pie- na'ho- mai cias-|cun- na val-|
 F,2 E,2 A,,2 E,2 | F,4 E,4 | A,,8 | D,4 A,,4- | A,,8 |] %45
w: * * le, cias-|cu- na|val-|* le.|_|

